public/icons/helix-mic-sm.svg

<svg role="img" xmlns="http://www.w3.org/2000/svg" width="24" height="24" fill="none" viewBox="0 0 24 24">
  <path fill="currentColor" fill-rule="evenodd" d="M2.5 12c0-5.2467 4.2533-9.5 9.5-9.5s9.5 4.2533 9.5 9.5-4.2533 9.5-9.5 9.5-9.5-4.2533-9.5-9.5ZM12 1.5C6.201 1.5 1.5 6.201 1.5 12S6.201 22.5 12 22.5 22.5 17.799 22.5 12 17.799 1.5 12 1.5Zm0 14c1.933 0 3.5-1.567 3.5-3.5a.5.5 0 0 1 1 0c0 2.3163-1.75 4.2238-4 4.4725V18a.5.5 0 0 1-1 0v-1.5275c-2.25-.2487-4-2.1562-4-4.4725a.5.5 0 0 1 1 0c0 1.933 1.567 3.5 3.5 3.5ZM9.5 8c0-1.3807 1.1193-2.5 2.5-2.5s2.5 1.1193 2.5 2.5v4c0 1.3807-1.1193 2.5-2.5 2.5S9.5 13.3807 9.5 12V8ZM12 6.5c-.8284 0-1.5.6716-1.5 1.5v4c0 .8284.6716 1.5 1.5 1.5s1.5-.6716 1.5-1.5V8c0-.8284-.6716-1.5-1.5-1.5Z"/>
</svg>

<svg role="img" width="24" height="24" viewBox="0 0 24 24" fill="none" xmlns="http://www.w3.org/2000/svg">
<path fill-rule="evenodd" clip-rule="evenodd" d="M2.5 12C2.5 6.75329 6.75329 2.5 12 2.5C17.2467 2.5 21.5 6.75329 21.5 12C21.5 17.2467 17.2467 21.5 12 21.5C6.75329 21.5 2.5 17.2467 2.5 12ZM12 1.5C6.20101 1.5 1.5 6.20101 1.5 12C1.5 17.799 6.20101 22.5 12 22.5C17.799 22.5 22.5 17.799 22.5 12C22.5 6.20101 17.799 1.5 12 1.5ZM12 15.5C13.933 15.5 15.5 13.933 15.5 12C15.5 11.7239 15.7239 11.5 16 11.5C16.2761 11.5 16.5 11.7239 16.5 12C16.5 14.3163 14.75 16.2238 12.5 16.4725V18C12.5 18.2761 12.2761 18.5 12 18.5C11.7239 18.5 11.5 18.2761 11.5 18V16.4725C9.25003 16.2238 7.5 14.3163 7.5 12C7.5 11.7239 7.72386 11.5 8 11.5C8.27614 11.5 8.5 11.7239 8.5 12C8.5 13.933 10.067 15.5 12 15.5ZM9.5 8C9.5 6.61929 10.6193 5.5 12 5.5C13.3807 5.5 14.5 6.61929 14.5 8V12C14.5 13.3807 13.3807 14.5 12 14.5C10.6193 14.5 9.5 13.3807 9.5 12V8ZM12 6.5C11.1716 6.5 10.5 7.17157 10.5 8V12C10.5 12.8284 11.1716 13.5 12 13.5C12.8284 13.5 13.5 12.8284 13.5 12V8C13.5 7.17157 12.8284 6.5 12 6.5Z" fill="currentColor"/>
</svg>
